svg/pantograph_top_down.svg

<svg width="24" height="24" viewBox="0 0 24 24" fill="none" xmlns="http://www.w3.org/2000/svg">
<path d="M22 3H2V5H10.3819L12.8718 9.97987L10.4063 14.5H8.53529L7.83216 13.4453C7.5258 12.9858 6.90493 12.8616 6.44541 13.1679C5.98588 13.4743 5.8617 14.0952 6.16806 14.5547L7.01962 15.832C7.29782 16.2493 7.76617 16.5 8.2677 16.5H15.7325C16.234 16.5 16.7024 16.2493 16.9806 15.832L17.8322 14.5547C18.1385 14.0952 18.0143 13.4743 17.5548 13.1679C17.0953 12.8616 16.4744 12.9858 16.1681 13.4453L15.4649 14.5H12.6845L14.6276 10.9376C14.9411 10.3628 14.9534 9.67102 14.6606 9.08544L12.6179 5H22V3Z" />
<path d="M2 21H22V19H2V21Z" />
</svg>

<svg width="24" height="24" viewBox="0 0 24 24" fill="none" xmlns="http://www.w3.org/2000/svg"><path d="M22 3H2v2h8.382l2.49 4.98-2.466 4.52h-1.87l-.704-1.055a1 1 0 0 0-1.664 1.11l.852 1.277a1.5 1.5 0 0 0 1.248.668h7.464a1.5 1.5 0 0 0 1.249-.668l.851-1.277a1 1 0 0 0-1.664-1.11l-.703 1.055h-2.78l1.943-3.562a2 2 0 0 0 .033-1.853L12.618 5H22V3zM2 21h20v-2H2v2z"/></svg>
